X:96
T:Over the Hills and Far Away. VWMLa.096
%%VWML:Anon2-3049-p55-0
F:http://www.vwml.org/record/Anon2/3049/p55
S:Anon. MS, late 18thC, Vaughan Williams Mem. Library
O:England;Yorkshire
Z:vmp/efdss.Simon Wilson. Reviewed PJH 2008.
M:2/4
L:1/16
Q:1/4=140
K:G
d2f2 d2f2|d2B2 B4|defe defe|g2e2 e4|\
d2f2 d2f2|d2B2 g4|{c}B2AG A2f2|g2e2 e4:|
|:a3b agfe|d2B2 B4|a3b a2gf|g2e2 e2fg|\
a3b agfe|d2B2 g4|{c}B2AG A2f2|g2e2 e4:|
T:Down the Banks. VWMLa.097
R:Reel
S:Anon. MS, late 18thC, Vaughan Williams Mem. Library
O:England;Yorkshire
Z:vmp/efdss.Simon Wilson. Reviewed PJH 2008.
M:C
L:1/8
Q:2/4=90
K:G
B|AFED G2GB|AFED E2EB|AFED BcdB|AFdF D3:|\
|:e|defd gfec|defd ecBA|defd gfeg|(f/g/a) Acd3:|
